!!!OTL: DIE ALTE FICHTE SCHWANKET
!!!ARE: Europa, Mitteleuropa, Deutschland
!!!SCT: B0156
!!!YEM: Copyright 1995, estate of Helmut Schaffrath.
**kern
*ICvox
*Ivox
*M4/4
*k[]
*a:
{4a
=1
4g#
4e
4a
4b
=2
2ccn
4b}
{4ee
=3
4dd
4b
8ccn
8b
4a
=4
2b
4r}
{4b
=5
4ccn
4dd
4ee
4dd
=6
4.ccn
8b
4a}
{4b
=7
4e
4a
8ccn
8b
8a
8g#
=8
2a
4r}
==
!!!AGN: Ballade, Romanze
!!!ONB: ESAC (Essen Associative Code) Database: BOEHME
!!!AMT: simple quadruple
!!!AIN: vox
!!!EED: Helmut Schaffrath
!!!EEV: 1.0
*-
